X: 38581
T: Stone Dog
R: reel
M: 4/4
K: Gmajor
B~E3 c~E3|AGEG DEGA|B~E3 c~E3|edcB AGFA|
B~E3 c~E3|AGEG DEGA|BAGF EFGA|BedB AGFD:|
~E2eE dEeE|~E2eE dEeE|gded gded|Bded Bded|
bded bded|gdfd edBd|ABdB AGFD|EGFD ~E2B,D:|

